X:1
T:Loudoun Castle
C:Nathaniel Gow (1763-1831)
L:1/16
M:2/4
I:linebreak $
K:E
V:1 treble 
V:1
 B>A | G2>A2 B2c2 | F6 BA | G2>A2 B2A2 | GBcd efg2 | G2>A2 B2c2 | F6 BA | %7
 (G/B/c/d/ e/f/g/a/) b>E A>G |$ G2F2 E2 :| b2 | b2>a2 g2c'2 | f6 ba | g2>a2 b2a2 | %13
 g(bc'd'){f'} e'2(d'/c'/b/a/) | g2>a2 b2c'2 | f6 ba |$ (gb)(eg) cd/e/ Ba | [Bg]2[Af]2 [Ge]2 ba | %18
 g2>a2 b2c'2 | f6 ba | g(bag) (fedc) | (Bedc) B(^BcA) | G2>A2 B2c2 |$ F6 BA | %24
 (G/B/c/d/ e/f/g/a/) b>E A>G | G2F2 E2 || %26
